lib/assets/Nav-Products_Inactive.svg

<svg xmlns="http://www.w3.org/2000/svg" width="18" height="23.225" viewBox="0 0 18 23.225"><defs><style>.a{fill:none;stroke-linejoin:round;}.b,.c{stroke:none;}.c{fill:#b4b4b4;}</style></defs><g transform="translate(0.027 1)"><g class="a" transform="translate(-177.502 -421.258)"><path class="b" d="M186.476,432.892h-7l3.5,8.59h7l3.5-8.59Z"/><path class="c" d="M 179.4757690429688 432.8924865722656 L 182.9756469726563 441.4825439453125 L 189.9754638671875 441.4825439453125 L 193.475341796875 432.8924865722656 L 186.4755554199219 432.8924865722656 L 179.4757690429688 432.8924865722656 M 179.4757690429688 430.8924865722656 L 186.4755554199219 430.8924865722656 L 193.475341796875 430.8924865722656 C 194.1412506103516 430.8924865722656 194.7634887695313 431.2239074707031 195.1350555419922 431.7765197753906 C 195.5066223144531 432.3291320800781 195.5787811279297 433.0304260253906 195.3275146484375 433.6471252441406 L 191.82763671875 442.2371826171875 C 191.5208129882813 442.990234375 190.7886199951172 443.4825439453125 189.9754638671875 443.4825439453125 L 182.9756469726563 443.4825439453125 C 182.1624908447266 443.4825439453125 181.4302978515625 442.990234375 181.1234741210938 442.2371826171875 L 177.6235961914063 433.6471252441406 C 177.3723297119141 433.0304260253906 177.4444885253906 432.3291320800781 177.8160552978516 431.7765197753906 C 178.1876220703125 431.2239074707031 178.8098602294922 430.8924865722656 179.4757690429688 430.8924865722656 Z"/></g><g class="a" transform="translate(-178.095 -420.476)"><path class="b" d="M180.068,430.326a3.389,3.389,0,0,1,1.75-2.95s0-2.949,2.625-2.949c0,0,0-2.95,2.625-2.95s2.625,2.95,2.625,2.95,2.6-.092,2.6,3.073a3.31,3.31,0,0,1,1.778,2.827Z"/><path class="c" d="M 194.0679626464844 430.3262634277344 C 194.0679626464844 428.3592834472656 192.2904205322266 427.4989929199219 192.2904205322266 427.4989929199219 C 192.2904205322266 424.5084838867188 189.9720153808594 424.4261779785156 189.7164459228516 424.4261779785156 C 189.7015380859375 424.4261779785156 189.693603515625 424.4264526367188 189.693603515625 424.4264526367188 C 189.693603515625 424.4264526367188 189.693603515625 421.47607421875 187.0684356689453 421.47607421875 C 184.4432525634766 421.47607421875 184.4432525634766 424.4264526367188 184.4432525634766 424.4264526367188 C 181.8180999755859 424.4264526367188 181.8180999755859 427.3758239746094 181.8180999755859 427.3758239746094 C 180.0679779052734 428.157470703125 180.0679779052734 430.3262634277344 180.0679779052734 430.3262634277344 L 194.0679626464844 430.3262634277344 M 194.0679626464844 432.3262634277344 L 180.0679779052734 432.3262634277344 C 178.9634094238281 432.3262634277344 178.0679779052734 431.4308471679688 178.0679779052734 430.3262634277344 C 178.0679779052734 429.2585754394531 178.4932098388672 427.3877563476563 179.9599609375 426.1902465820313 C 180.0342712402344 425.8534545898438 180.1472778320313 425.473876953125 180.3190155029297 425.0879516601563 C 180.8220672607422 423.9576110839844 181.6603851318359 423.1493835449219 182.7187042236328 422.7375793457031 C 182.7794952392578 422.5430908203125 182.8536224365234 422.3416442871094 182.9440765380859 422.1383056640625 C 183.69677734375 420.4464111328125 185.2000579833984 419.47607421875 187.0684356689453 419.47607421875 C 188.9368133544922 419.47607421875 190.4400787353516 420.4464111328125 191.1927795410156 422.1383056640625 C 191.2881164550781 422.3526306152344 191.3653411865234 422.56494140625 191.4279022216797 422.7690734863281 C 191.673828125 422.8685607910156 191.9289245605469 422.996337890625 192.1832275390625 423.1603393554688 C 192.8488616943359 423.5896301269531 193.8959808349609 424.5417175292969 194.2030487060547 426.3939819335938 C 195.1312866210938 427.1875305175781 196.0679626464844 428.505615234375 196.0679626464844 430.3262634277344 C 196.0679626464844 431.4308471679688 195.1725311279297 432.3262634277344 194.0679626464844 432.3262634277344 Z"/></g></g></svg>

<svg height="23.225" viewBox="0 0 18 23.225" width="18" xmlns="http://www.w3.org/2000/svg"><g fill="none" stroke-linejoin="round"><g transform="translate(-177.475 -420.258)"><path d="m186.476 432.892h-7l3.5 8.59h7l3.5-8.59z"/><path d="m179.47576904 432.89248657 3.49987793 8.59005738h6.9998169l3.49987793-8.59005738h-6.99978638zm0-2h6.99978638 6.99978638c.66590881 0 1.28814697.3314209 1.65971374.88403321.37156677.5526123.44372559 1.25390625.19245911 1.87060546l-3.49987793 8.59005738c-.30682373.75305176-1.03901672 1.24536133-1.85217285 1.24536133h-6.9998169c-.81315613 0-1.54534912-.49230957-1.85217285-1.24536133l-3.49987793-8.59005738c-.25126648-.61669921-.17910766-1.31799316.19245911-1.87060546.37156677-.55261231.99380493-.88403321 1.65971374-.88403321z" fill="#b4b4b4"/></g><g transform="translate(-178.068 -419.476)"><path d="m180.068 430.326a3.389 3.389 0 0 1 1.75-2.95s0-2.949 2.625-2.949c0 0 0-2.95 2.625-2.95s2.625 2.95 2.625 2.95 2.6-.092 2.6 3.073a3.31 3.31 0 0 1 1.778 2.827z"/><path d="m194.06796265 430.32626343c0-1.96697998-1.77754212-2.82727051-1.77754212-2.82727051 0-2.99050903-2.31840515-3.07281494-2.57397461-3.07281494-.01490783 0-.0228424.00027466-.0228424.00027466s0-2.95037842-2.62516785-2.95037842c-2.62518311 0-2.62518311 2.95037842-2.62518311 2.95037842-2.62515258 0-2.62515258 2.94937133-2.62515258 2.94937133-1.75012207.78164673-1.75012207 2.95043946-1.75012207 2.95043946zm0 2h-13.99998474c-1.10456849 0-2-.89541626-2-2 0-1.06768799.42523193-2.93850708 1.89198303-4.13601685.0743103-.33679199.18731689-.71636963.35905456-1.10229492.50305176-1.13034058 1.34136963-1.93856812 2.39968872-2.35037231.06079102-.19448853.13491822-.39593506.22537232-.59927369.7527008-1.69189453 2.25598144-2.66223144 4.12435913-2.66223144 1.86837768 0 3.37164307.97033691 4.12434387 2.66223144.09533692.21432496.17256165.42663575.23512268.63076783.24592591.0994873.50102234.2272644.75532532.39126587.66563415.42929077 1.71275329 1.38137817 2.01982117 3.23364257.92823791.79354859 1.86491394 2.1116333 1.86491394 3.9322815 0 1.10458374-.89543152 2-2 2z" fill="#b4b4b4"/></g></g></svg>
